X:4898
T:Oy Pid Vyshneyu
O:england
S:A. Humenyuk
Q:72
M:2/4
L:1/8
K:Bb
[Bd] [Bd] [A2c2] | [G2B2] [^F2A2] | \
[Bd] [Bd] [A2c2] | [G2B2] [^F2A2] | \
[Ac] [Ac] [Ac] [Ac] | [Bd] [Bd] [Bd] [Bd] | \
[Ac] [GB] [^F2A2] | [GB] [GB] [G2B2] |]


